X:1
T:ADAGIO IN G MINOR
T:ADAGIO IN G MINOR
T:For Bassoon Trio
T:TOMASO ALBINONI Arr. JACOB WROBEL
C:GIAZOTTO ALBINONI Arr. JACOB WROBEL
%%score [ { 1 2 } 3 ]
L:1/8
Q:1/4=70
M:3/4
K:Bb
V:1 bass nm="Bassoon I" snm="Bsn. I"
V:2 bass nm="Bassoon II" snm="Bsn. II"
V:3 bass transpose=-12 nm="Contrabassoon" snm="Cbsn."
V:1
!pp! G,6- | G,6 |!p! (G,/4A,/4B,3/2- B,3) G, | G,6 | (A,/4B,/4C3/2- C4) | (B,/4A,/4B,3/2- B,4) | %6
 (A,/4G,/4A,3/2- A,2-!>(! (3A,)G,^F,!>)! |!pp! G,6 |!p!"^9" (D2 C>B,) (A,>G,) | %9
!>(! (G,4!>)!!pp!!<(! ^F,2)!<)! |!p! (E2 D>C) (B,>A,) |!<(! (A,4 G,2)!<)! |!mf! (G2 FG) (3(EFD) | %13
 E6 | (F2 EF) (3(DEC) | D6 | (E2 DE) (3(CDB,) | C6 |!<(! (D4!<)!!mf!!>(! E2)!>)! | %19
!p![Q:1/4=50] !fermata!D4[Q:1/4=30] z[Q:1/4=70] G | (AB) (AG) (^FG) |"^22" F6 | (E3 C) (E>G) | %23
 (D3 B,) (D>G) | C6 | B,6 |!>(! A,6!>)! |!pp!"^28" G,6- | %28
!<(! G,3!<)!!mf!"^rubato"[Q:1/4=50] G, (_A,/[Q:1/4=60]G,/)^F,/[Q:1/4=70]G,/ | %29
 (F,/E,/)[Q:1/4=90]D,/E,/ (F,/[Q:1/4=110]E,/)D,/E,/[Q:1/4=85] (D,/C,/)[Q:1/4=60]=B,,/C,/ | %30
[Q:1/4=70]!>(! D,4- D,[Q:1/4=30]z/!>)!!p![Q:1/4=70]=B,,/ | C,6-[Q:1/4=40][Q:1/4=50][Q:1/4=60] | %32
 C,6[Q:1/4=75][Q:1/4=100][Q:1/4=80][Q:1/4=60] | %33
[Q:1/4=30] z2 z!mf! G,,[Q:1/4=40] (C,/E,/)[Q:1/4=50]G,/C/ | %34
 (E/[Q:1/4=70]C/)G,/E,/[Q:1/4=95] (G,/C/)E/[Q:1/4=80]G/ (E/[Q:1/4=70]C/)G,/[Q:1/4=75]C,/ | %35
 (E,/[Q:1/4=90]G,/)C/E/[Q:1/4=105] (C/G,/)E,/[Q:1/4=115]C,/ (E,/G,/)[Q:1/4=90]C/E/ | %36
[Q:1/4=30] !fermata!G4 z z/!p![Q:1/4=70] E,,/ | =E,,6-[Q:1/4=80] | %38
 E,,6-[Q:1/4=100][Q:1/4=120][Q:1/4=95][Q:1/4=70] | E,,4- E,,[Q:1/4=30] z[Q:1/4=70] | %40
 z2 z!mf![Q:1/4=40] C (_D/C/)[Q:1/4=60]=B,/C/ | %41
 (B,/[Q:1/4=80]_A,/)G,/A,/[Q:1/4=90] (B,/A,/)G,/[Q:1/4=70]A,/ (A,/G,/)[Q:1/4=50]F,/=E,/ | %42
[Q:1/4=40] !fermata!F,3 z z2[Q:1/4=50] | z6[Q:1/4=60][Q:1/4=75][Q:1/4=90][Q:1/4=100] | %44
 z6[Q:1/4=75][Q:1/4=50][Q:1/4=75][Q:1/4=60] |[Q:1/4=40] !fermata!z6[Q:1/4=30][Q:1/4=70] | %46
[Q:1/4=60] z2 z!f![Q:1/4=50] (C DE) | %47
[Q:1/4=55]!>(! (E/[Q:1/4=60]D/)[Q:1/4=65]F/E/ (E/[Q:1/4=75]D/)D/C/[Q:1/4=60] (C/=B,/)[Q:1/4=40]B,/C/ | %48
"^A Tempo""^49"[Q:1/4=70] (=B,/4C/4D3/2- D3) C!>)! |!p! C6 | z6 | z6 | (C/4D/4E3/2- E3) C | C6 | %54
 (D/4E/4F3/2- F4) | (E/4D/4E3/2- E4) | (D/4C/4D3/2- D2- (3D)C=B, |!<(! C6!<)! | %58
!f!"^59" (G,2 F,>E,) (D,>C,) | C,4 =B,,2 | (_A,2 G,>F,) (E,>D,) |!<(! D,4 C,2!<)! | %62
!ff! (C2 B,C) (3(_A,B,G,) | _A,6 | (B,2 _A,B,) (3(G,A,F,) |!>(! G,6!>)! |!mp! F,6- | %67
 F,3 !tenuto!F, (D,>B,,) | B,,2 z4 | z2 z !tenuto!F, (D,>B,,) | B,,2 z4 |"^72"!>(! B,6!>)! | %72
!p!"^rubato"[Q:1/4=50] B2- B/(A/[Q:1/4=70]G/F/) (E/[Q:1/4=90]D/C/[Q:1/4=80]B,/) | %73
[Q:1/4=60] G,!f! G3- (3G[Q:1/4=40]EC |[Q:1/4=70]"^A Tempo" (B,4 _A,2) | F4- (3FDB, | (_A,2 G,4) | %77
 F,6 | (G,3 C) (G,>E,) | C,3 z z2 | C,3 C (G,>E,) | C,3 z z2 | z2 z !tenuto!C (=B,C) | %83
 _D4 (D/4E/4FE/4D/4) |[Q:1/4=60] !fermata!C4[Q:1/4=30] z!ff![Q:1/4=70] C |"^86" (DE) (DC) (=B,C) | %86
 B,4 (B,/4C/4_DC/4B,/4) | (_A,3 F,) (A,>C) | G,3 E, (G,>C) | F4 (F/4G/4_AG/4F/4) | %90
 E4 (E/4F/4GF/4E/4) | D4 (D/4E/4FE/4D/4) |!<(! C6- | C6!<)! | %94
!f! C/4D/4E3/2-[Q:1/4=40] !fermata!E2 z3/2[Q:1/4=70] E/ ||!ff!"^96" D6 | F4 z3/2 F/ | E6 | %98
 G4 z3/2 G/ | (G2 F4) | E4 z3/2 E/ | (E2 ^C4) |[Q:1/4=50] !breath!!fermata!D6 | %103
[Q:1/4=70] A4 z3/2 A/ | (A2 G4) | F4 z3/2 F/ | (F2 E4) | B,4 z3/2 B,/ ||"^109" B,6 | %109
 (A,/4B,/4C3/2- C4) | (B,/4A,/4B,3/2- B,4) |!>(! (A,/4G,/4A,3/2- A,2- (3A,)G,^F, | %112
[Q:1/4=40] G,2!>)! z!p!"^rubato" G,,[Q:1/4=30] (B,,/D,/)[Q:1/4=40]G,/B,/ | %113
[Q:1/4=55] (G,/D,/)[Q:1/4=70]B,,/D,/[Q:1/4=90] (G,,/B,,/)[Q:1/4=110]D,/G,/[Q:1/4=95] (B,/G,/)[Q:1/4=70](B,/[Q:1/4=45]D/) | %114
[Q:1/4=40] !fermata!G6 |] %115
V:2
!pp! D,6- | D,6 | E,6- | E,6 | E,6 | =E,6 | D,4 C,2 | B,,6- | B,,7/2!<(! G,,/ (A,,>B,,)!<)! | %9
!p! C,>D, E,>D, E,>C, |!>(! !breath!^F,7/2!>)!!pp!!<(! A,,/ B,,>C,!<)! |!p! D,>=E, ^F,>D, G,2 | %12
 G,4 (D,2- | D,2 C,D, (3B,,C,A,,) | F,4 (C,2- | C,2 B,,C, (3A,,B,,G,,) | E,4 B,,2- | %17
 B,,2!<(! (A,,B,, (3C,B,,A,,- | A,,2!<)!!mf! G,,)^F,!>(! G,A,!>)! |!p! !fermata!G,4 z2 | z6 | %21
 z2 z2 (D,/4E,/4F,E,/4D,/4) | C,6 | D,6 | E,4 (_A,/4B,/4CB,/4A,/4) | G,4 (G,/4A,/4B,A,/4G,/4) | %26
!>(! ^F,4 (F,/4G,/4A,G,/4F,/4)!>)! |!pp! =B,,6- |"^rubato" B,,6- | B,,6- | B,,4- B,, z | %31
 z2 z!mf! G, (_A,/G,/)^F,/G,/ | (F,/E,/)D,/E,/ (F,/E,/)D,/E,/ (E,/D,/)C,/=B,,/ | %33
!>(! !fermata!C,3!>)!!ppp! z z2 | z6 | z6 | !fermata!z6 | z2 z!mf! C (_D/C/)=B,/C/ | %38
 (B,/_A,/)G,/A,/ (B,/A,/)G,/A,/ (G,/F,/)=E,/F,/ | G,4- G,z/!p!B,,/ | _A,,6- | A,,6- | %42
 !fermata!A,,3!mf! _A,, (C,/F,/)_A,/C/ | (_A,/F,/)C,/F,/ (A,/C/)F/_A/ (F/C/)A,/F,/ | %44
 (_A,/C/)F/_A/ (c/A/)F/C/ (F,/A,/)C/F/ | !fermata!_A4 z z/ _A,,/ | A,,3!f! (C DE) | %47
!>(! (E/D/)F/E/ (E/D/)D/C/ (C/=B,/)B,/C/ | F,6!>)! |!pp! E,,6 | B,,6- | B,,6 | E,6- | E,6 | F,6 | %55
 A,6 | G,4 F,2 | E,6- | E,7/2!<(! C,/ E,>E,!<)! |!mf! F,>G, _A,>G, A,>F, | =B,7/2 D,/ E,>F, | %61
!<(! G,>A, =B,>G, C2!<)! |!f! C2 G,2 C,2 | (G,2 F,G,) (3(E,F,D,) | F,4 B,,2 | %65
!>(! (F,2 E,F,) (3(D,E,C,)!>)! |!p! E,3 !>!A, (!>!B,>!>!C) | (D,4 F,2) | G,3 !>!A, (!>!B,>!>!C) | %69
 F,6 | G,3 !>!A, (!>!B,>!>!C) |!>(! (F,6!>)! |!pp!"^rubato" F,6) |!mp! C6 | C,6 | B,,6 | %76
 z2!<(! z E, (B,,>G,,)!<)! |!f! =B,,3 B,, (C,>D,) | C,6- | C,3 =B,, (C,>D,) | C,6- | %81
 C,3 =B,, (C,>D,) | C,3 !tenuto!C, (=B,,C,) | _D,4 _A,2 | !fermata!E,4 z!ff! C, | %85
 (D,E,) (D,C,) (=B,,C,) | _D,4 (G,,/4_A,,/4B,,A,,/4G,,/4) | C,4 F,2 | C,6 | %89
 _A,,4 (_D,/4E,/4F,E,/4D,/4) | C,4 (C,/4D,/4E,D,/4C,/4) | =B,,4 (B,,/4C,/4D,E,/4F,/4) |!<(! E,6 | %93
 C,/4D,/4E,3/2- E,4!<)! |!f! !fermata!A,4 z3/2 A,/ ||!ff! (C2 =B,4) | _A,4 z3/2 A,/ | (D2 C4) | %98
 =E4 z3/2 E/ | (=E2 D4) | B,4 z3/2 B,/ | B,2 =E,2 !>!A,!>!G, | !breath!!fermata!F,6 | E4 z3/2 E/ | %104
 D6 | _A,4 z3/2 D/ | (D2 C4) | =E,4 z3/2 E,/ || D,6 | E,6 | =E,6 |!>(! D,4 C,2!>)! |!pp! B,,6- | %113
 B,,6- | !fermata!B,,6 |] %115
V:3
!p! .G,,2 .G,2 .G,,2 | .F,,2 .F,2 .F,,2 | .E,,2 .E,2 .E,,2 | .D,,2 .D,2 .D,,2 | .C,,2 .C,2 .C,,2 | %5
 .^C,,2 .^C,2 .C,,2 | .D,,2 .D,2 .D,,2 | .G,,2 .G,2 .G,,2 | .G,,2 .G,2 .G,,2 | .A,,2 .A,2 .A,,2 | %10
 .A,,2 .A,2 .A,,2 | .B,,2 .B,2 .B,,2 | .B,,2 .B,2 .B,,2 | .C,2 .C2 .C,2 | .A,,2 .A,2 .A,,2 | %15
 .B,,2 .B,2 .B,,2 | .G,,2 .G,2 .G,,2 | .A,,2 .A,2 .A,,2 | .B,,2 .B,2 .B,,2 | !fermata!D,4 z2 | z6 | %21
!pp! .=B,,2 .=B,2 .B,,2 | .C,2 .C2 .C,2 | .B,,2 .B,2 .B,,2 | ._A,,2 ._A,2 .A,,2 | %25
 .D,,2 .D,2 .D,,2 | .D,,2 .D,2 .D,,2 | G,,6- |"^rubato" G,,6- | G,,6- | G,,4- G,,z/!p!G,,/ | %31
 G,,6- | G,,6- | !fermata!G,,6- | G,,6- | G,,6- | !fermata!G,,4 z z/ G,,/ | G,,6- | G,,6- | %39
 G,,4- G,,z/G,,/ | F,,6- | F,,6- | !fermata!F,,6- | F,,6- | F,,6- | !fermata!F,,4 z z/!mf! F,,/ | %46
 D,,6- |!>(! D,,6 | .G,,2 .G,2 .G,,2!>)! |!pp! .C,2 .C2 .C,2 | .C,2 .C2 .C,2 | .B,,2 .B,2 .B,,2 | %52
 ._A,,2 ._A,2 .A,,2 | .G,,2 .G,2 .G,,2 | .F,,2 .F,2 .F,,2 | .^F,,2 .^F,2 .F,,2 | .G,,2 .G,2 .G,,2 | %57
!<(! .C,2 .C2 .C,2!<)! |!mf! .C,2 .C2 .C,2 | .D,2 .D2 .D,2 | .D,2 .D2 .D,2 | %61
!<(! .E,2 .E2 .E,2!<)! |!f! .E,2 .E2 .E,2 | .F,2 .F2 .F,2 | .D,2 .D2 .D,2 |!>(! .E,2 .E2 .E,2!>)! | %66
!p! .C,2 .C2 .C,2 | .D,2 .D2 .D,2 | .E,2 .E2 .E,2 | .D,2 .D2 .D,2 | .E,2 .E2 .E,2 |!>(! (D,,6!>)! | %72
!pp!"^rubato" D,,6) |!mp! E,,6 | .F,2 .F2 .F,2 | .D,2 .D2 .D,2 | .E,2 .E2 .E,2 | .D,2 .D2 .D,2 | %78
 .E,2 .E2 .E,2 | .F,2 .F2 .F,2 | .E,2 .E2 .E,2 | .F,2 .F2 .F,2 | E,6 |!f! .F,,2 .F,2 .F,,2 | %84
 !fermata!G,,4 z2 | z6 |!ff! .=E,,2 .=E,2 .E,,2 | .F,,2 .F,2 .F,,2 | .E,,2 .E,2 .E,,2 | %89
 ._D,,2 ._D,2 .D,,2 | .G,,2 .G,2 .G,,2 | .G,,2 .G,2 .G,,2 |!<(! ._A,,2 ._A,2 .A,,2 | %93
 .G,,2 .G,2 .G,,2!<)! |!f! !fermata!^F,,4 z3/2 F,,/ ||!ff! G,,6 | =B,,4 z3/2 B,,/ | C,6 | %98
 ^C,4 z3/2 C,/ | D,6 | G,,4 z3/2 G,,/ | A,,6 | !breath!!fermata!B,,6 | ^F,,4 z3/2 F,,/ | G,,6 | %105
 =B,,4 z3/2 B,,/ | C,6 | ^C,4 z3/2 C,/ || .D,,2 .D,2 .D,,2 | .C,,2 .C,2 .C,,2 | %110
 .^C,,2 .^C,2 .C,,2 |!>(! .D,,2 .D,2 .D,,2!>)! |!pp! G,,6- | G,,6- | !fermata!G,,6 |] %115

